!!!OTL: EINSAM BIN ICH NICHT ALLEINE
!!!ARE: Europa, Mitteleuropa, Deutschland
!!!SCT: F0047
!!!YEM: Copyright 1995, estate of Helmut Schaffrath.
**kern
*ICvox
*Ivox
*M6/8
*k[f#c#]
*D:
=1
{4a
8f#
4dd
8a
=2
4g
8e
4ee
8a}
=3
{8a
8dd
8dd
8dd
8cc#
8a
=4
8a
8ff#
16ee
16dd
8dd
4cc#}
=5
{4a
8dd
8.ee
16dd
16b
16g
=6
4g#
8ee
8.ff#
16ee
16cc#
16a}
=7
{4ff#
8cc#
4a
8f#
=8
4e
16b
16a
4g
8f#}
=9
{8f#
8a
8dd
8.ff#
16dd
16a
16f#
=10
8.a
16g
16f#
16e
4d
8r}
==
!!!AGN: Liebes - Lied
!!!ONB: ESAC (Essen Associative Code) Database: FINK
!!!AMT: compound duple
!!!AIN: vox
!!!EED: Helmut Schaffrath
!!!EEV: 1.0
*-
